X: 17
T: No_14_Bear_Dance_Song_(j).krn
N: Derived from No_14_Bear_Dance_Song_(j).krn
%%abc-version 2.0
%%abcx-abcm2ps-target-version 5.9.1 (29 Sep 2008)
%%abc-creator hum2abc beta
%%abcx-conversion-date 2019/03/15 08:36:49
%%humdrum-veritas 3345797833
%%humdrum-veritas-data 1389617935
%%linebreak <none>
%%barnumbers 0
L: 1/8
M: 2/4
K: A clef=bass
[K:clef=bass][M:2/4]F3/E/F2 [I:setbarnb 2]| 
E3/C/ !fermata!E3/C/ | 
(3CA,A, (3F,E,E, | 
E,2!fermata!E,2 | 
E3/C/ E3/C/ | 
(3CA,A, (3F,E,E, | 
E,2!fermata!E,2 | 
F,/E,3/ F,/E,3/ ||  
[M:5/8]F,/F,/E,F,/F,/E,/E,/E, ||  
[M:2/4]E,E, E,E, | 
E,E, E,E, :|]  



